X:1
T:Title
L:1/8
Q:1/4=120
M:4/4
K:C
V:1 treble nm="Midi_1"
V:1
 (cd) e2 f2 d2 |"^Descant to AMNS 116""^Tune: All things bright and beautiful" e2 c2 G2 A2 | %2
w: All * things bright and|beau- ti- ful, all|
 B2 d2 d2 d2 | d4 (e2 f2 | g2) g2 f2 f2 | e2 d2 c2 A2 | G2 c2 A2 B2 | %7
w: crea- tures great and|small, all *|* things wise and|won- der- ful, the|Lord God made them|
"^Descant by Andrew Sims, February 2017\nBased on harmony by Noel Rawsthorne" c6 |] %8
w: all.|

